!!!!SEGMENT: pl-kk--kk-i-379--002_anonim--deo-gratias.krn
!!!cenid: 17xx:1980
!!!COM: Anonim
!!!COM-rismID: pe30004985
!!!CDT:
!!!CNT:
!!!OTL: Deo gratias
!!!PDT:
!!!AGN: Sacred
!!!SMS-siglum: PL-Kk
!!!SMS-shelfmark: Kk.I.379
!!!SMS-shelfwork: 002 W
!!!SMS-variant:
!!!SMS-altvar:
!!!NIFC-rismSourceID: 1001143604
!!!NIFC-rismChildID: 1001143606
!!!NIFC-islandoraID: pl-kk:6124
!!!URL-pdf-islandora: https://repozytorium.nifc.pl/islandora/object/pl-kk%3A6124/datastream/PDF/view
!!!URL-scan: https://polish.musicsources.pl/pl/lokalizacje/galeria/rekopisy/5991 @EN{Scan on Polish Music Sources Website} @PL{Skany w portalu Dziedzictwo Muzyki Polskiej w otwartym dostępie}
!!!IIIF:
!!!ONB-nifc: UWAGA: utwory w zbiorze: 1. Adoramus te Christe, 2. Deo gratias. Uwaga: Deo gratias na ostatniej pięciolinii
!!!AIN: 2 alto 2 empty 2 tenor 2 vox
!!!key:
**kern	**kern	**text	**kern	**kern	**text	**kern	**kern	**text	**kern	**kern	**text
*part8	*part7	*part7	*part6	*part5	*part5	*part4	*part3	*part3	*part2	*part1	*part1
*staff8	*staff7	*staff7	*staff6	*staff5	*staff5	*staff4	*staff3	*staff3	*staff2	*staff1	*staff1
*Iempty	*Iempty	*	*Itenor	*Itenor	*	*Ialto	*Ialto	*	*Ivox	*Ivox	*
*I"Baſso 2do	*I"Baſso 1mo	*	*I"Tenore S(econ)do.	*I"Tenore 1mo	*	*I"Alto 2do.	*I"Alto 1mo.	*	*I"Canto Se(con)do.	*I"Canto 1mo	*
*I'B 2	*I'B 1	*	*I'T 2	*I'T 1	*	*I'A 2	*I'A 1	*	*I'S 2	*I'S 1	*
*clefF4	*clefF4	*	*clefC4	*clefC4	*	*clefC3	*clefC3	*	*clefC1	*clefC1	*
*k[]	*k[]	*	*k[]	*k[]	*	*k[]	*k[]	*	*k[]	*k[]	*
*C:	*C:	*	*C:	*C:	*	*C:	*C:	*	*C:	*C:	*
*M2/2	*M2/2	*	*M2/2	*M2/2	*	*M2/2	*M2/2	*	*M2/2	*M2/2	*
*met(c|)	*met(c|)	*	*met(c|)	*met(c|)	*	*met(c|)	*met(c|)	*	*met(c|)	*met(c|)	*
=1	=1	=1	=1	=1	=1	=1	=1	=1	=1	=1	=1
*	*2\right	*	*	*2\right	*	*	*2\right	*	*	*2\right	*
!	!LO:TX:t=P:problem=all\right&colon; global	!	!	!LO:TX:t=P:problem=all\right&colon; global	!	!	!LO:TX:t=P:problem=all\right&colon; global	!	!	!LO:TX:t=P:problem=all\right&colon; global	!
!	!	!	!	!	!	!LO:TX:a:t=P:problem=w źródle brak Deo gratias w głosie Alto 2do.	!	!	!LO:TX:a:t=P:problem=w źródle brak Deo gratias w głosie Canto Se(con)do.	!	!
!LO:TX:a:t=P:problem=w źródle brak Deo gratias w głosie Baſso 2do	!	!	!LO:TX:a:t=P:problem=w źródle brak Deo gratias w głosie Tenore S(econ)do.	!	!	!	!	!	!	!	!
!	!LO:TX:a:Bi:t=ex C.	!	!	!LO:TX:a:Bi:t=ex C.	!	!	!LO:TX:a:Bi:t=ex C.	!	!	!LO:TX:a:Bi:t=ex C.	!
1ryy	2C/	De-	1ryy	2E/	De-	1ryy	(>4g\	De-	1ryy	4cc\	De-
.	.	.	.	.	.	.	4e\)	.	.	8b\L	.
.	.	.	.	.	.	.	.	.	.	8a\J	.
.	2D/	-o	.	2F/	-o	.	(>4f\	-o	.	2b\	-o
.	.	.	.	.	.	.	4a\)	.	.	.	.
=2	=2	=2	=2	=2	=2	=2	=2	=2	=2	=2	=2
1ryy	2E\	Gra-	1ryy	2G/	Gra-	1ryy	2g\	Gra-	1ryy	4cc\	Gra-
.	.	.	.	.	.	.	.	.	.	4ee\	.
.	2F\	.	.	2A\	.	.	4a\	.	.	4dd\	.
.	.	.	.	.	.	.	4cc\	.	.	4cc\	.
=3	=3	=3	=3	=3	=3	=3	=3	=3	=3	=3	=3
1ryy	2G\	.	1ryy	2B\	.	1ryy	4b\	.	1ryy	4b\	.
.	.	.	.	.	.	.	4g\	.	.	4dd\	.
.	2A\	.	.	2c\	.	.	4f\	.	.	4cc\	.
.	.	.	.	.	.	.	4a\	.	.	4a\	.
=4	=4	=4	=4	=4	=4	=4	=4	=4	=4	=4	=4
1ryy	4B\	.	1ryy	4d\	.	1ryy	4g\	.	1ryy	4dd\	.
.	4B\	-ti-	.	4d\	-ti-	.	4f\	-ti-	.	8ee\L	ti-
.	.	.	.	.	.	.	.	.	.	8ff\J	.
.	2c\	-as	.	2e\	-as	.	2e\	-as	.	2ee\	-as
=5	=5	=5	=5	=5	=5	=5	=5	=5	=5	=5	=5
1ryy	4C\	De-	1ryy	(<4G/	De-	1ryy	2cc\	De-	1ryy	2ee\	De-
.	8E\L	.	.	4c\)	.	.	.	.	.	.	.
.	8F\J	.	.	.	.	.	.	.	.	.	.
.	4G\	.	.	(>4B\	.	.	2b\	-o	.	2dd\	-o
.	4GG/	-o	.	4G/)	-o	.	.	.	.	.	.
=6	=6	=6	=6	=6	=6	=6	=6	=6	=6	=6	=6
1ryy	4A\	Gra-	1ryy	4F/	Gra-	1ryy	2a\	Gra-	1ryy	2cc\	Gra-
.	8c\L	.	.	4F/	-ti-	.	.	.	.	.	.
.	8d\J	.	.	.	.	.	.	.	.	.	.
.	4e\	.	.	2G/	-as	.	2g\	.	.	2b\	.
.	4E\	.	.	.	.	.	.	.	.	.	.
=7	=7	=7	=7	=7	=7	=7	=7-	=7-	=7	=7	=7
1ryy	4F\	.	1ryy	(<4A/	De-	1ryy	2f\	.	1ryy	2a\	.
.	8A\L	.	.	4F/)	.	.	.	.	.	.	.
.	8B\J	.	.	.	.	.	.	.	.	.	.
.	4c\	.	.	(<4E/	o	.	2e\	.	.	2g\	.
.	4C/	.	.	4G/)	.	.	.	.	.	.	.
=8	=8	=8	=8	=8	=8	=8	=8-	=8-	=8	=8	=8
1ryy	4D\	.	1ryy	4B\	Gra-	1ryy	2d\	.	1ryy	2f/	.
.	8F\L	.	.	4B\	-ti-	.	.	.	.	.	.
.	8G\J	.	.	.	.	.	.	.	.	.	.
.	4A\	.	.	2c\	-as	.	2c\	.	.	2e/	.
.	4E\	.	.	.	.	.	.	.	.	.	.
=9	=9	=9	=9	=9	=9	=9	=9	=9	=9	=9	=9
1ryy	4F\	.	1ryy	(>2d\	De-	1ryy	4a\	.	1ryy	4d/	.
.	4G\	-ti-	.	.	.	.	4g\	-ti-	.	4d/	-ti-
.	2C/	-as	.	2e\)	.	.	2g\	-as	.	2c/	-as
=10	=10	=10	=10	=10	=10	=10	=10	=10	=10	=10	=10
1ryy	2F\	De-	1ryy	2c\	-o	1ryy	2a\	De-	1ryy	(>4a\	De-
.	.	.	.	.	.	.	.	.	.	4b\	.
.	2C/	-o	.	2r	.	.	4g\	o	.	2cc\)	-o
.	.	.	.	.	.	.	4e\	.	.	.	.
=11	=11-	=11-	=11	=11	=11	=11	=11	=11	=11	=11	=11
1ryy	2F\	Gra-	1ryy	2A/	De-	1ryy	(>2f\	Gra-	1ryy	1cc	Gra-
.	2c\	.	.	2G/	-o	.	2e\)	.	.	.	.
=12	=12	=12	=12	=12	=12	=12	=12-	=12-	=12	=12	=12
1ryy	2F\	.	1ryy	1c	Gra-	1ryy	2f\	.	1ryy	2a\	.
.	2C/	.	.	.	.	.	2e\	.	.	2g\	.
=13	=13-	=13-	=13	=13-	=13-	=13	=13-	=13-	=13	=13-	=13-
1ryy	2F\	.	1ryy	2d\	.	1ryy	2f\	.	1ryy	2a\	.
.	2BBn/	-ti-	.	4d\	.	.	4f\	.	.	2g\	-ti-
.	.	.	.	4d\	-ti-	.	4f\	-ti-	.	.	.
=14	=14-	=14-	=14	=14-	=14-	=14	=14-	=14-	=14	=14-	=14-
!	!	!	!	!	!	!	!	!	!	!LO:TX:a:t=P:problem= w źródle niewidoczna kreska końcowa	!
0ryy	0C;>	-as	0ryy	0c;<	-as	0ryy	0e	-as	0ryy	0g;<	-as
==	==	==	==	==	==	==	==	==	==	==	==
*-	*-	*-	*-	*-	*-	*-	*-	*-	*-	*-	*-
!!!system-decoration: [(s1,s2,s3,s4,s5,s6,s7,s8)]
!!!RDF**kern: > = above
!!!RDF**kern: < = below
!!!RDF**kern: l = terminal long
!!!EED: Wojciech Jakubiak-Danek
!!!EEV: 2021-03-01
!!!ENC: Krzysztof Stępień
!!!END: 2021-02-09
!!!YEC: Copyright 2022 Narodowy Instytut Fryderyka Chopina (https://polishscores.org)
!!!YEM: License CC-BY-4.0 (https://creativecommons.org/licenses/by/4.0)
